X:133
M:2/4
L:1/8
Q:1/4=140
K:C
c2 ec|cBAG|defg|fedc|c2 ec|cBAG|AcBc|c2c2:|

